!!!!SEGMENT: pl-wnifc--13846--001-086_anonim--piesni-polskie-i-ruskie-ludu-galicyjskiego-86-a-mnie-chwile-milej-plyna.krn
!!!cenid: 18xx:3308
!!!COM: Anonim
!!!COM-rismID: pe30004985
!!!CDT:
!!!CNT:
!!!GTL: Pieśni polskie i ruskie ludu galicyjskiego
!!!OTL: 86. A mnie chwile miléj płyną
!!!OMV: 086
!!!PDT: 1833
!!!AGN:
!!!SMS-siglum: PL-Wnifc
!!!SMS-shelfmark: 13846
!!!SMS-shelfwork: 001-086 G
!!!SMS-variant:
!!!SMS-altvar:
!!!NIFC-rismSourceID: 1001036701
!!!NIFC-rismChildID: 1001039001
!!!NIFC-islandoraID: nifc:210326
!!!URL-pdf-islandora: https://repozytorium.nifc.pl/islandora/object/nifc%3A210326/datastream/PDF/view
!!!URL-scan:
!!!IIIF:
!!!ONB-nifc:
!!!AIN: 2 piano 1 soprn
!!!key: G
!!!OMD: Vivace.
**kern	**kern	**kern	**text
*group2	*group2	*group1	*
*part3	*part2	*part1	*part1
*staff3	*staff2	*staff1	*staff1
*I"[Piano]	*I"[Piano]	*I"[Soprano]	*
*Ipiano	*Ipiano	*Isoprn	*
*ICklav	*ICklav	*ICvox	*
*IGacmp	*IGacmp	*IGsolo	*
*clefF4	*clefG2	*clefG2	*
*k[f#]	*k[f#]	*k[f#]	*
*G:	*G:	*G:	*
*M3/8	*M3/8	*M3/8	*
=1	=1	=1	=1
8DD/	16d\LL 16dd	16d/	A
.	16d\JJ 16dd	16d/	mnie
8D\L 8A 8c	8f#\L 8ff#	8.f#/	chwi-
8D\J 8A 8c	8d\J 8dd	.	.
.	.	16d/	-le
=2	=2	=2	=2
8GGG/	16g\LL 16gg	16g/	mi-
.	.	8qf#/	.
.	16g\JJ 16gg	16g/	-léj
8D\L 8G 8B	8b\L 8bb	8b/	pły-
8D\J 8G 8B	8ee\J 8eee	8ee\	-ną
!!LO:LB:g=original
=3	=3	=3	=3
8DD/	16ddd\LL	16dd\LL	i
.	.	8qee/	.
.	32eee\L	16dd\JJ	go-
.	32ddd\JJJ	.	.
8D\L 8F# 8A	8ccc\L	8cc\	-dzi-
8A\J 8c 8d	16aa\L	(<16a/LL	-na
.	16ff#\JJ	16f#/JJ)	.
=4	=4	=4	=4
8GGG/	16gg\LL	16g/	za
.	16gg\JJ	16g/	go-
8D\L 8G 8B 8d	8bb\L	8b/	-dzi-
8D\J 8G 8B 8d	8gg\J	8g/	-ną
=5	=5	=5	=5
8DD/	16d\LL 16dd	16d/	z mo-
.	16d\JJ 16dd	16d/	-ją
8D\L 8A 8c 8d	8f#\L 8ff#	8.f#/	Ma-
8D\J 8A 8c 8d	8d\J 8dd	.	.
.	.	16d/	-ry-
!!LO:LB:g=original
=6	=6	=6	=6
8GGG/	16g\LL 16gg	16g/	-sią,
.	.	8qf#/	.
.	(>32ff#\L	16g/	ma-
.	32gg\JJJ)	.	.
8D\L 8G 8B 8d	8b\L 8bb	8b\	-tu-
8D\J 8G 8B 8d	8ee\J 8eee	8ee\	-lu
=7	=7	=7	=7
8DD/	16dd\LL 16ddd	16dd\	z mo-
.	(>32ee\L 32eee	(>32ee\LLL	-ją
.	32dd\JJJ 32ddd)	32dd\JJJ)	.
8D\L 8F# 8A 8d	8cc\L 8ccc	8cc\	je-
8D\J 8A 8d	8f#\J 8ff#	8f#/	-dy-
=8	=8	=8	=8
!!mixed beam:problem
!LO:TX:t=P:problem=mixed beam	!	!	!
8G\L 8B 8d	4.g\ 4.gg	4.g/	-ną.
8GG/J	.	.	.
8r	.	.	.
==	==	==	==
*-	*-	*-	*-
!!!system-decoration: [(g1)][(g2)]
!!!RDF**kern: > = above
!!!RDF**kern: < = below
!!!ENC: Anastazja Marusiak
!!!END: 2021-11-10
!!!EED: Jędrzej Mróz
!!!ESR: 2021-11-11
!!!YEC: Copyright 2022 Narodowy Instytut Fryderyka Chopina (https://polishscores.org)
!!!YEM: License CC-BY-4.0 (https://creativecommons.org/licenses/by/4.0)
